packages/components/icons/assets/WorkFill.svg

<svg viewBox="0 0 24 24" xmlns="http://www.w3.org/2000/svg" data-title="WorkFill" fill="currentColor" stroke="none">
  <path fill-rule="evenodd" clip-rule="evenodd" d="M15.527 4.16667V6.25H17.0207V7C16.9378 7.41667 16.6058 7.75 16.1909 7.75H7.72614C7.3112 7.75 6.97925 7.41667 6.97925 7V6.25H8.39004V4.16667C8.39004 3.91667 8.47303 3.75 8.639 3.66667C8.72199 3.5 8.88797 3.41667 9.13693 3.41667H14.7801C15.029 3.41667 15.195 3.5 15.278 3.66667C15.444 3.83333 15.527 4 15.527 4.16667ZM6.97925 6.25V4.16667C6.97925 3.58333 7.22822 3.08333 7.64315 2.66667C7.9751 2.25 8.55602 2 9.13693 2H14.8631C15.444 2 15.9419 2.25 16.3568 2.66667C16.7718 3.08333 17.0207 3.58333 17.0207 4.16667V6.25H19.7593C20.9212 6.25 21.917 7.25 22 8.41667V19.8333C22 21 21.0041 22 19.8423 22H4.15768C2.99585 22 2 21 2 19.8333V8.41667C2 7.25 2.99585 6.25 4.15768 6.25H6.97925ZM6.97925 17H16.9378C17.3527 17 17.6846 16.6667 17.6846 16.25C17.6846 15.8333 17.3527 15.5 16.9378 15.5H6.97925C6.56432 15.5 6.23236 15.8333 6.23236 16.25C6.23236 16.6667 6.56432 17 6.97925 17ZM6.97925 12.75H16.9378C17.3527 12.75 17.6846 12.4167 17.6846 12C17.6846 11.5833 17.3527 11.25 16.9378 11.25H6.97925C6.56432 11.25 6.23236 11.5833 6.23236 12C6.23236 12.4167 6.56432 12.75 6.97925 12.75Z"/>
  <path d="M7.72614 7.75H16.1909C16.6058 7.75 16.9378 7.41667 17.0207 7V6.25H15.527H8.39004H6.97925V7C6.97925 7.41667 7.3112 7.75 7.72614 7.75Z"/>
</svg>

<svg viewBox="0 0 24 24" xmlns="http://www.w3.org/2000/svg" data-title="WorkFill" fill="currentColor" stroke="none">
  <path fill-rule="evenodd" d="m15.53,4.17v2.08h1.49v.75c-.08.42-.41.75-.83.75H7.73c-.41,0-.75-.33-.75-.75v-.75h1.41v-2.08c0-.25.08-.42.25-.5.08-.17.25-.25.5-.25h5.64c.25,0,.41.08.5.25.17.17.25.33.25.5Zm-8.55,2.08v-2.08c0-.58.25-1.08.66-1.5.33-.42.91-.67,1.49-.67h5.73c.58,0,1.08.25,1.49.67.41.42.66.92.66,1.5v2.08h2.74c1.16,0,2.16,1,2.24,2.17v11.42c0,1.17-1,2.17-2.16,2.17H4.16c-1.16,0-2.16-1-2.16-2.17v-11.42c0-1.17,1-2.17,2.16-2.17h2.82Zm0,10.75h9.96c.41,0,.75-.33.75-.75s-.33-.75-.75-.75H6.98c-.41,0-.75.33-.75.75s.33.75.75.75Zm0-4.25h9.96c.41,0,.75-.33.75-.75s-.33-.75-.75-.75H6.98c-.41,0-.75.33-.75.75s.33.75.75.75Z"/>
  <path d="m7.73,7.75h8.46c.41,0,.75-.33.83-.75v-.75H6.98v.75c0,.42.33.75.75.75Z"/>
</svg>
